brandFactory_export/2.Regular/Niño_2Regular.svg

<?xml version="1.0" encoding="UTF-8"?>
<svg width="24px" height="24px" viewBox="0 0 24 24" version="1.1" xmlns="http://www.w3.org/2000/svg" xmlns:xlink="http://www.w3.org/1999/xlink">
    <title>2.Regular/Niño_2Regular</title>
    <g id="Symbols" stroke="none" stroke-width="1" fill="none" fill-rule="evenodd">
        <g id="2.Regular/Niño_2Regular" fill="#5CB615" fill-rule="nonzero">
            <path d="M13.0453782,18.1529412 C13.3243697,17.8773109 13.7747899,17.8773109 14.0504202,18.1529412 C14.3294118,18.4285714 14.3294118,18.8756303 14.0504202,19.1478992 C13.3714286,19.8168067 12.6386555,20.1663866 11.8689076,20.1764706 L11.8252101,20.1764706 C11.0453782,20.1764706 10.2957983,19.8302521 9.60336134,19.1445378 C9.32436975,18.8689076 9.32436975,18.4252101 9.60336134,18.1495798 C9.88235294,17.8739496 10.3327731,17.8739496 10.6084034,18.1495798 C11.0319328,18.5697479 11.4521008,18.7714286 11.8453782,18.7714286 C12.2352941,18.7647059 12.6386555,18.5563025 13.0453782,18.1529412 Z M21.0722689,16.794958 C21.8184874,16.7848739 22.1983193,16.3815126 22.1983193,15.5983193 C22.1983193,14.8218487 21.8285714,14.4285714 21.0991597,14.4151261 L21.0521008,14.8319328 C21.0487395,14.9394958 21.0352941,15.0235294 21.0319328,15.1310924 C21.0016807,15.6285714 20.9478992,16.1966387 20.8504202,16.7882353 C20.8773109,16.7882353 20.897479,16.7915966 20.9142857,16.7915966 L21.0722689,16.794958 Z M19.6773109,12.7344538 L19.6773109,11.7159664 C19.6705882,11.6756303 19.6638655,11.6352941 19.6638655,11.5915966 C19.6605042,11.4638655 19.6504202,11.3529412 19.6470588,11.2285714 L3.90252101,11.2285714 L3.89243697,13.7563025 C3.90252101,13.7966387 3.90588235,13.8369748 3.90588235,13.8773109 C4.04369748,19.0470588 5.38487395,21.2554622 8.38319328,21.2554622 C8.57142857,21.2554622 8.74957983,21.2453782 8.9210084,21.2352941 L14.6084034,21.2319328 C15.0453782,21.2588235 15.3781513,21.2588235 15.7277311,21.2352941 L15.8487395,21.2352941 C15.8823529,21.2285714 15.9159664,21.2218487 15.9495798,21.2184874 C17.4655462,21.0672269 19.4991597,20.1394958 19.6638655,13.8806723 C19.6638655,13.8369748 19.6672269,13.7966387 19.6773109,13.7563025 L19.6773109,12.7344538 L19.6773109,12.7344538 Z M8.38319328,4.21680672 C5.35798319,4.21680672 4.17815126,5.65210084 3.94285714,9.82352941 L7.09579832,9.82352941 C7.2907563,7.7394958 8.01008403,6.07563025 9.2605042,4.8789916 C9.47226891,4.67731092 9.70084034,4.49579832 9.9394958,4.3210084 C9.53613445,4.27394958 9.12605042,4.22689076 8.68235294,4.22689076 L8.38319328,4.21680672 L8.38319328,4.21680672 Z M11.9764706,4.82521008 C11.3176471,5.09411765 10.7260504,5.43361345 10.2487395,5.88739496 C9.27731092,6.81848739 8.70588235,8.1394958 8.52436975,9.82016807 L15.4252101,9.82016807 C15.2436975,8.1394958 14.6722689,6.81512605 13.7008403,5.88739496 C13.2268908,5.43361345 12.6352941,5.09411765 11.9764706,4.82521008 Z M15.2302521,4.22352941 C14.7865546,4.22352941 14.4168067,4.27394958 14.0134454,4.3210084 C14.2521008,4.49579832 14.4806723,4.67731092 14.6890756,4.8789916 C15.9394958,6.07563025 16.6621849,7.7394958 16.8537815,9.82352941 L19.5462185,9.82352941 C19.0722689,5.16470588 17.3042017,4.39495798 15.9462185,4.25714286 L15.7714286,4.24033613 C15.5831933,4.22689076 15.4252101,4.22352941 15.2672269,4.22352941 L15.2302521,4.22352941 L15.2302521,4.22352941 Z M2.70252101,16.794958 C2.7092437,16.794958 2.71932773,16.7915966 2.72605042,16.7915966 C2.64201681,16.2403361 2.58151261,15.6890756 2.54453782,15.1445378 C2.54453782,15.0302521 2.52436975,14.9596639 2.52436975,14.8487395 L2.47394958,14.4218487 C1.78487395,14.4521008 1.42521008,14.8420168 1.42521008,15.5983193 C1.42521008,16.3815126 1.80168067,16.7848739 2.5512605,16.794958 L2.70252101,16.794958 Z M21.1058824,13.0033613 C22.2689076,13.0134454 23.6235294,13.6991597 23.6235294,15.594958 C23.6235294,17.4907563 22.2621849,18.1831933 21.092437,18.2 L20.8941176,18.2 C20.8168067,18.2 20.7092437,18.1932773 20.5781513,18.1764706 C20.5714286,18.1764706 20.5680672,18.1731092 20.5613445,18.1697479 C20.0033613,20.2336134 18.8235294,22.2436975 16.2823529,22.589916 C16.205042,22.6201681 16.1210084,22.6369748 16.0336134,22.6369748 L15.7747899,22.6369748 C15.6168067,22.6504202 15.4084034,22.6605042 15.189916,22.6605042 C14.9714286,22.6605042 14.7663866,22.6470588 14.5647059,22.6369748 L8.97142857,22.6369748 C8.81344538,22.6504202 8.60504202,22.6605042 8.38319328,22.6605042 C5.14285714,22.6605042 3.68067227,20.6235294 3.01848739,18.1764706 C2.89747899,18.189916 2.79663866,18.1966387 2.72605042,18.1966387 L2.52773109,18.1966387 C1.36134454,18.1798319 0,17.487395 0,15.5915966 C0,13.7193277 1.32436975,13.0302521 2.47394958,13.0033613 L2.48067227,11.2252101 L0.712605042,11.2252101 C0.319327731,11.2252101 0,10.9092437 0,10.5226891 C0,10.1327731 0.319327731,9.82016807 0.712605042,9.82016807 L2.51428571,9.82016807 C2.71596639,6.0789916 3.71428571,2.80840336 8.38319328,2.80840336 C8.60504202,2.80840336 8.81344538,2.81848739 9.01848739,2.83529412 L10.712605,2.83529412 C10.6386555,2.66386555 10.5882353,2.47226891 10.5882353,2.23697479 C10.5882353,1.83697479 10.6991597,1.52436975 10.9176471,1.31596639 C11.1294118,1.11428571 11.4352941,1.01344538 11.8252101,1.01344538 C12.2151261,1.01344538 12.5210084,1.11428571 12.7327731,1.31596639 C12.9512605,1.52773109 13.0655462,1.83697479 13.0655462,2.23697479 C13.0655462,2.46890756 13.0184874,2.66386555 12.9445378,2.83529412 L14.6084034,2.83529412 C14.9210084,2.81176471 15.4151261,2.81176471 15.8252101,2.83865546 L16.0403361,2.85210084 C16.1310924,2.86218487 16.2084034,2.87226891 16.2957983,2.88571429 C20.1478992,3.42016807 20.9109244,7.77647059 21.0756303,10.3378151 C21.0789916,10.4453782 21.0957983,10.5260504 21.1058824,10.6436975 L21.102521,12.7445378 L21.1058824,13.0033613 L21.1058824,13.0033613 Z M9.65714286,15.5613445 C9.65714286,15.9512605 9.33781513,16.2638655 8.94453782,16.2638655 C8.5512605,16.2638655 8.23193277,15.9478992 8.23193277,15.5613445 L8.23193277,13.3630252 C8.23193277,12.9731092 8.5512605,12.6605042 8.94453782,12.6605042 C9.33781513,12.6605042 9.65714286,12.9764706 9.65714286,13.3630252 L9.65714286,15.5613445 Z M14.6184874,12.6605042 C15.0117647,12.6605042 15.3310924,12.9764706 15.3310924,13.3630252 L15.3310924,15.5613445 C15.3310924,15.9512605 15.0117647,16.2638655 14.6184874,16.2638655 C14.2252101,16.2638655 13.9058824,15.9478992 13.9058824,15.5613445 L13.9058824,13.3630252 C13.9058824,12.9764706 14.2252101,12.6605042 14.6184874,12.6605042 L14.6184874,12.6605042 Z" id="Niño_2Regular"></path>
        </g>
    </g>
</svg>

<svg width="24" height="24" viewBox="0 0 24 24" xmlns="http://www.w3.org/2000/svg"><path d="M13.045 18.153a.714.714 0 011.005 0 .696.696 0 010 .995c-.679.669-1.411 1.018-2.181 1.028h-.044c-.78 0-1.53-.346-2.222-1.031a.696.696 0 010-.995.714.714 0 011.005 0c.424.42.844.621 1.237.621.39-.006.794-.215 1.2-.618zm8.027-1.358c.746-.01 1.126-.413 1.126-1.197 0-.776-.37-1.17-1.099-1.183l-.047.417c-.003.107-.017.192-.02.3a16.35 16.35 0 01-.182 1.656c.027 0 .047.004.064.004l.158.003zm-1.395-4.06v-1.019a.742.742 0 01-.013-.124c-.003-.128-.014-.24-.017-.363H3.903l-.01 2.527c.01.04.013.081.013.121.138 5.17 1.479 7.378 4.477 7.378.188 0 .367-.01.538-.02l5.687-.003c.437.027.77.027 1.12.003h.12c.034-.006.068-.013.102-.017 1.516-.15 3.55-1.079 3.714-7.337 0-.044.003-.084.013-.125v-1.022zM8.383 4.216c-3.025 0-4.205 1.435-4.44 5.607h3.153c.195-2.085.914-3.748 2.165-4.945a6.81 6.81 0 01.678-.558 10.612 10.612 0 00-1.257-.094l-.299-.01zm3.593.608c-.658.27-1.25.609-1.727 1.062-.972.931-1.543 2.252-1.725 3.933h6.901c-.181-1.68-.753-3.005-1.724-3.933-.474-.453-1.066-.793-1.725-1.062zm3.254-.601c-.443 0-.813.05-1.217.097.24.175.468.356.676.558 1.25 1.197 1.973 2.86 2.165 4.945h2.692c-.474-4.66-2.242-5.429-3.6-5.567l-.175-.017a6.813 6.813 0 00-.504-.016h-.037zM2.703 16.795l.023-.003a19.888 19.888 0 01-.181-1.647c0-.115-.02-.185-.02-.296l-.051-.427c-.69.03-1.049.42-1.049 1.176 0 .784.377 1.187 1.126 1.197h.152zm18.403-3.792c1.163.01 2.518.696 2.518 2.592 0 1.896-1.362 2.588-2.532 2.605h-.198a2.58 2.58 0 01-.316-.024c-.007 0-.01-.003-.017-.006-.558 2.064-1.737 4.074-4.279 4.42a.682.682 0 01-.248.047h-.26a7.159 7.159 0 01-.584.024c-.219 0-.424-.014-.625-.024H8.97a7.182 7.182 0 01-.588.024c-3.24 0-4.702-2.037-5.365-4.485-.12.014-.221.02-.292.02h-.198C1.36 18.18 0 17.488 0 15.593c0-1.873 1.324-2.562 2.474-2.589l.007-1.778H.713A.709.709 0 010 10.523c0-.39.32-.703.713-.703h1.801c.202-3.741 1.2-7.012 5.87-7.012.221 0 .43.01.634.027h1.695a1.469 1.469 0 01-.125-.598c0-.4.111-.713.33-.921.211-.202.517-.303.907-.303s.696.101.908.303c.218.212.333.521.333.921 0 .232-.048.427-.121.598h1.663a9.815 9.815 0 011.217.004l.215.013c.091.01.168.02.256.034 3.852.534 4.615 4.89 4.78 7.452.003.107.02.188.03.306l-.003 2.1.003.26zM9.657 15.561c0 .39-.32.703-.712.703a.709.709 0 01-.713-.703v-2.198c0-.39.32-.702.713-.702.393 0 .712.315.712.702v2.198zm4.961-2.9c.394 0 .713.315.713.702v2.198c0 .39-.32.703-.713.703a.709.709 0 01-.712-.703v-2.198c0-.387.32-.702.712-.702z" fill="#5CB615" fill-rule="nonzero"/></svg>
